src/img/icon-plus.svg

<svg fill="none" height="13" viewBox="0 0 14 13" width="14" xmlns="http://www.w3.org/2000/svg"><path d="m13.5 6.49999c0 .41563-.3344.75-.75.75h-5v5.00001c0 .4141-.33594.7503-.75.7503s-.75-.3347-.75-.7503v-5.00001h-5c-.414062 0-.75-.33562-.75-.74968 0-.41282.335938-.75032.75-.75032h5v-4.999997c0-.414063.33594-.74968782.75-.74968782s.75.33562482.75.74968782v4.999997h5c.4156 0 .75.3375.75.75z" fill="#52606d"/></svg>

<svg width="14" height="13" viewBox="0 0 14 13" fill="none" xmlns="http://www.w3.org/2000/svg">
<path d="M13.5 6.49999C13.5 6.91562 13.1656 7.24999 12.75 7.24999H7.75V12.25C7.75 12.6641 7.41406 13.0003 7 13.0003C6.58594 13.0003 6.25 12.6656 6.25 12.25V7.24999H1.25C0.835938 7.24999 0.5 6.91437 0.5 6.50031C0.5 6.08749 0.835938 5.74999 1.25 5.74999H6.25V0.749993C6.25 0.33593 6.58594 0.000305176 7 0.000305176C7.41406 0.000305176 7.75 0.33593 7.75 0.749993V5.74999H12.75C13.1656 5.74999 13.5 6.08749 13.5 6.49999Z" fill="#52606D"/>
</svg>
